X:1
T:Blodau'r Drain
C:Traditional
M:3/4
L:1/4
Q:1/4=144
K:D
A | D2 E | FED | AG/2F/2E/2D/2 | E2A | DD/2F/2E/2G/2 | FED | ^G=G/2E/2D/2F/2 | D3 |]
